public/assets/badges/eersteCollaboration.svg

<svg fill="none" height="191" viewBox="0 0 191 191" width="191" xmlns="http://www.w3.org/2000/svg" xmlns:xlink="http://www.w3.org/1999/xlink"><filter id="a" color-interpolation-filters="sRGB" filterUnits="userSpaceOnUse" height="170.571" width="133.79" x="29" y="13"><feFlood flood-opacity="0" result="BackgroundImageFix"/><feColorMatrix in="SourceAlpha" type="matrix" values="0 0 0 0 0 0 0 0 0 0 0 0 0 0 0 0 0 0 127 0"/><feOffset dy="4"/><feColorMatrix type="matrix" values="0 0 0 0 0 0 0 0 0 0 0 0 0 0 0 0 0 0 0.15 0"/><feBlend in2="BackgroundImageFix" mode="normal" result="effect1_dropShadow"/><feBlend in="SourceGraphic" in2="effect1_dropShadow" mode="normal" result="shape"/></filter><filter id="b" color-interpolation-filters="sRGB" filterUnits="userSpaceOnUse" height="170.571" width="133.79" x="29" y="13"><feFlood flood-opacity="0" result="BackgroundImageFix"/><feColorMatrix in="SourceAlpha" type="matrix" values="0 0 0 0 0 0 0 0 0 0 0 0 0 0 0 0 0 0 127 0"/><feOffset dy="4"/><feColorMatrix type="matrix" values="0 0 0 0 0 0 0 0 0 0 0 0 0 0 0 0 0 0 0.15 0"/><feBlend in2="BackgroundImageFix" mode="normal" result="effect1_dropShadow"/><feBlend in="SourceGraphic" in2="effect1_dropShadow" mode="normal" result="shape"/></filter><g filter="url(#a)"><path d="m116.781 16h-42.1137c-2.6159 0-5.1276 1.025-6.9966 2.8553l-32.6673 31.99c-1.9209 1.881-3.0034 4.4562-3.0034 7.1447v77.866c0 2.751 1.1333 5.38 3.1331 7.27l32.5165 30.715c1.8564 1.753 4.3133 2.73 6.8669 2.73h44.2855c2.606 0 5.11-1.017 6.977-2.835l30.988-30.175c1.971-1.919 3.064-4.565 3.022-7.316l-1.189-78.4197c-.039-2.5909-1.082-5.0654-2.91-6.9022l-31.82-31.9768c-1.877-1.886-4.428-2.9463-7.089-2.9463z" fill="#ffed00"/><path d="m116.781 16h-42.1137c-2.6159 0-5.1276 1.025-6.9966 2.8553l-32.6673 31.99c-1.9209 1.881-3.0034 4.4562-3.0034 7.1447v77.866c0 2.751 1.1333 5.38 3.1331 7.27l32.5165 30.715c1.8564 1.753 4.3133 2.73 6.8669 2.73h44.2855c2.606 0 5.11-1.017 6.977-2.835l30.988-30.175c1.971-1.919 3.064-4.565 3.022-7.316l-1.189-78.4197c-.039-2.5909-1.082-5.0654-2.91-6.9022l-31.82-31.9768c-1.877-1.886-4.428-2.9463-7.089-2.9463z" stroke="#000" stroke-width="6"/></g><g filter="url(#b)"><path d="m116.781 16h-42.1137c-2.6159 0-5.1276 1.025-6.9966 2.8553l-32.6673 31.99c-1.9209 1.881-3.0034 4.4562-3.0034 7.1447v77.866c0 2.751 1.1333 5.38 3.1331 7.27l32.5165 30.715c1.8564 1.753 4.3133 2.73 6.8669 2.73h44.2855c2.606 0 5.11-1.017 6.977-2.835l30.988-30.175c1.971-1.919 3.064-4.565 3.022-7.316l-1.189-78.4197c-.039-2.5909-1.082-5.0654-2.91-6.9022l-31.82-31.9768c-1.877-1.886-4.428-2.9463-7.089-2.9463z" fill="#ffed00"/><path d="m116.781 16h-42.1137c-2.6159 0-5.1276 1.025-6.9966 2.8553l-32.6673 31.99c-1.9209 1.881-3.0034 4.4562-3.0034 7.1447v77.866c0 2.751 1.1333 5.38 3.1331 7.27l32.5165 30.715c1.8564 1.753 4.3133 2.73 6.8669 2.73h44.2855c2.606 0 5.11-1.017 6.977-2.835l30.988-30.175c1.971-1.919 3.064-4.565 3.022-7.316l-1.189-78.4197c-.039-2.5909-1.082-5.0654-2.91-6.9022l-31.82-31.9768c-1.877-1.886-4.428-2.9463-7.089-2.9463z" stroke="#eee" stroke-width="6"/></g><path d="m71.2141 77.8883 20.9213-20.9213c1.3206-1.3206 3.4614-1.3206 4.7959 0l25.7867 25.7867c1.321 1.3206 1.321 3.4614 0 4.7959l-1.821 1.8211 4.573 4.5735-18.683 18.6688-4.573-4.573-.431.431c-1.321 1.321-3.4616 1.321-4.7961 0l-25.7728-25.7868c-1.3206-1.3345-1.3206-3.4753 0-4.7959z" fill="#fff" stroke="#54bbab" stroke-miterlimit="10" stroke-width="3"/><path d="m141.745 108.689-20.31 20.31c-1.093 1.093-2.87 1.1-3.983-.003-.001 0-.002-.001-.002-.002l-11.27-11.269c-1.096-1.096-1.096-2.885 0-3.981l20.31-20.31c1.096-1.0962 2.885-1.0962 3.981 0l11.274 11.274c1.096 1.096 1.096 2.885 0 3.981z" fill="#54bbab" stroke="#54bbab" stroke-width="3"/><path d="m70.2979 88.8288-1.8211-1.821c-1.3206-1.3206-1.3206-3.4614 0-4.7959l25.8006-25.7867c.4031-.4032.8897-.6673 1.404-.8202l.4171-.417c1.0842-1.0843 2.8497-1.0843 3.9335 0l2.169 2.1686c.779.7784.987 1.8905.653 2.8636l.556.556c.974-.3336 2.086-.1112 2.864.6534l2.169 2.1686c.778.7785.987 1.8905.653 2.8636l.556.5561c.973-.3336 2.085-.1112 2.864.6533l2.168 2.1686c.779.7785.987 1.8906.654 2.8637l.723.7228c.973-.3336 2.085-.1251 2.863.6534l2.169 2.1686c1.084 1.0843 1.084 2.8497 0 3.934l-.195.1946c-.125.6395-.431 1.2511-.931 1.7516l-25.773 25.8145c-1.3206 1.321-3.4614 1.321-4.7959 0l-.4309-.431-4.5735 4.573-18.6554-18.6827z" fill="#fff" stroke="#54bbab" stroke-miterlimit="10" stroke-width="3"/><path d="m69.6288 129.934-20.3097-20.309c-1.682-1.682-1.682-4.421 0-6.103l11.2739-11.2737c1.682-1.682 4.4206-1.682 6.1026 0l20.3096 20.3097c1.6821 1.682 1.6821 4.421 0 6.103l-11.2738 11.273c-1.696 1.696-4.4206 1.696-6.1026 0z" fill="#54bbab"/><g fill="#fff"><path d="m70.7562 73.3567-2.1686 2.1686c-1.0843 1.0843-1.0843 2.8497 0 3.934l4.4206 4.4206c1.0843 1.0843 2.8497 1.0843 3.934 0l2.1686-2.1686c1.0843-1.0843 1.0843-2.8498 0-3.934l-4.4205-4.4206c-1.0843-1.0843-2.8498-1.0843-3.9341 0z" stroke="#54bbab" stroke-miterlimit="10" stroke-width="3"/><path d="m77.1908 66.9341-2.1686 2.1686c-1.0843 1.0842-1.0843 2.8497 0 3.934l5.7968 5.7968c1.0843 1.0843 2.8497 1.0843 3.934 0l2.1686-2.1686c1.0843-1.0843 1.0843-2.8497 0-3.934l-5.7968-5.7968c-1.0982-1.0843-2.8497-1.0843-3.934 0z" stroke="#54bbab" stroke-miterlimit="10" stroke-width="3"/><path d="m83.4359 60.6929-2.1686 2.1685c-1.0843 1.0843-1.0843 2.8498 0 3.9341l7.882 7.8819c1.0843 1.0843 2.8497 1.0843 3.934 0l2.1686-2.1685c1.0843-1.0843 1.0843-2.8498 0-3.9341l-7.882-7.8819c-1.0843-1.0843-2.8497-1.0843-3.934 0z" stroke="#54bbab" stroke-miterlimit="10" stroke-width="3"/><path d="m89.6752 54.4511-2.1686 2.1686c-1.0843 1.0843-1.0843 2.8497 0 3.934l6.4918 6.4919c1.0843 1.0842 2.8498 1.0842 3.9341 0l2.1685-2.1686c1.084-1.0843 1.084-2.8498 0-3.9341l-6.4918-6.4918c-1.0843-1.0982-2.8497-1.0982-3.934 0z" stroke="#54bbab" stroke-miterlimit="10" stroke-width="3"/></g></svg>

<svg width="191" height="191" viewBox="0 0 191 191" fill="none" xmlns="http://www.w3.org/2000/svg">
<g filter="url(#filter0_d)">
<path d="M116.781 16H74.6673C72.0514 16 69.5397 17.025 67.6707 18.8553L35.0034 50.8453C33.0825 52.7263 32 55.3015 32 57.99V135.856C32 138.607 33.1333 141.236 35.1331 143.126L67.6496 173.841C69.506 175.594 71.9629 176.571 74.5165 176.571H118.802C121.408 176.571 123.912 175.554 125.779 173.736L156.767 143.561C158.738 141.642 159.831 138.996 159.789 136.245L158.6 57.8253C158.561 55.2344 157.518 52.7599 155.69 50.9231L123.87 18.9463C121.993 17.0603 119.442 16 116.781 16Z" fill="#FFED00"/>
<path d="M116.781 16H74.6673C72.0514 16 69.5397 17.025 67.6707 18.8553L35.0034 50.8453C33.0825 52.7263 32 55.3015 32 57.99V135.856C32 138.607 33.1333 141.236 35.1331 143.126L67.6496 173.841C69.506 175.594 71.9629 176.571 74.5165 176.571H118.802C121.408 176.571 123.912 175.554 125.779 173.736L156.767 143.561C158.738 141.642 159.831 138.996 159.789 136.245L158.6 57.8253C158.561 55.2344 157.518 52.7599 155.69 50.9231L123.87 18.9463C121.993 17.0603 119.442 16 116.781 16Z" stroke="black" stroke-width="6"/>
</g>
<g filter="url(#filter1_d)">
<path d="M116.781 16H74.6673C72.0514 16 69.5397 17.025 67.6707 18.8553L35.0034 50.8453C33.0825 52.7263 32 55.3015 32 57.99V135.856C32 138.607 33.1333 141.236 35.1331 143.126L67.6496 173.841C69.506 175.594 71.9629 176.571 74.5165 176.571H118.802C121.408 176.571 123.912 175.554 125.779 173.736L156.767 143.561C158.738 141.642 159.831 138.996 159.789 136.245L158.6 57.8253C158.561 55.2344 157.518 52.7599 155.69 50.9231L123.87 18.9463C121.993 17.0603 119.442 16 116.781 16Z" fill="#FFED00"/>
<path d="M116.781 16H74.6673C72.0514 16 69.5397 17.025 67.6707 18.8553L35.0034 50.8453C33.0825 52.7263 32 55.3015 32 57.99V135.856C32 138.607 33.1333 141.236 35.1331 143.126L67.6496 173.841C69.506 175.594 71.9629 176.571 74.5165 176.571H118.802C121.408 176.571 123.912 175.554 125.779 173.736L156.767 143.561C158.738 141.642 159.831 138.996 159.789 136.245L158.6 57.8253C158.561 55.2344 157.518 52.7599 155.69 50.9231L123.87 18.9463C121.993 17.0603 119.442 16 116.781 16Z" stroke="#EEEEEE" stroke-width="6"/>
</g>
<path d="M71.2141 77.8883L92.1354 56.967C93.456 55.6464 95.5968 55.6464 96.9313 56.967L122.718 82.7537C124.039 84.0743 124.039 86.2151 122.718 87.5496L120.897 89.3707L125.47 93.9442L106.787 112.613L102.214 108.04L101.783 108.471C100.462 109.792 98.3214 109.792 96.9869 108.471L71.2141 82.6842C69.8935 81.3497 69.8935 79.2089 71.2141 77.8883Z" fill="white" stroke="#54BBAB" stroke-width="3" stroke-miterlimit="10"/>
<path d="M141.745 108.689L121.435 128.999C120.342 130.092 118.565 130.099 117.452 128.996C117.451 128.996 117.45 128.995 117.45 128.994L106.18 117.725C105.084 116.629 105.084 114.84 106.18 113.744L126.49 93.434C127.586 92.3378 129.375 92.3378 130.471 93.434L141.745 104.708C142.841 105.804 142.841 107.593 141.745 108.689Z" fill="#54BBAB" stroke="#54BBAB" stroke-width="3"/>
<path d="M70.2979 88.8288L68.4768 87.0078C67.1562 85.6872 67.1562 83.5464 68.4768 82.2119L94.2774 56.4252C94.6805 56.022 95.1671 55.7579 95.6814 55.605L96.0985 55.188C97.1827 54.1037 98.9482 54.1037 100.032 55.188L102.201 57.3566C102.98 58.135 103.188 59.2471 102.854 60.2202L103.41 60.7762C104.384 60.4426 105.496 60.665 106.274 61.4296L108.443 63.5982C109.221 64.3767 109.43 65.4887 109.096 66.4618L109.652 67.0179C110.625 66.6843 111.737 66.9067 112.516 67.6712L114.684 69.8398C115.463 70.6183 115.671 71.7304 115.338 72.7035L116.061 73.4263C117.034 73.0927 118.146 73.3012 118.924 74.0797L121.093 76.2483C122.177 77.3326 122.177 79.098 121.093 80.1823L120.898 80.3769C120.773 81.0164 120.467 81.628 119.967 82.1285L94.194 107.943C92.8734 109.264 90.7326 109.264 89.3981 107.943L88.9672 107.512L84.3937 112.085L65.7383 93.4023L70.2979 88.8288Z" fill="white" stroke="#54BBAB" stroke-width="3" stroke-miterlimit="10"/>
<path d="M69.6288 129.934L49.3191 109.625C47.6371 107.943 47.6371 105.204 49.3191 103.522L60.593 92.2483C62.275 90.5663 65.0136 90.5663 66.6956 92.2483L87.0052 112.558C88.6873 114.24 88.6873 116.979 87.0052 118.661L75.7314 129.934C74.0354 131.63 71.3108 131.63 69.6288 129.934Z" fill="#54BBAB"/>
<path d="M70.7562 73.3567L68.5876 75.5253C67.5033 76.6096 67.5033 78.375 68.5876 79.4593L73.0082 83.8799C74.0925 84.9642 75.8579 84.9642 76.9422 83.8799L79.1108 81.7113C80.1951 80.627 80.1951 78.8615 79.1108 77.7773L74.6903 73.3567C73.606 72.2724 71.8405 72.2724 70.7562 73.3567Z" fill="white" stroke="#54BBAB" stroke-width="3" stroke-miterlimit="10"/>
<path d="M77.1908 66.9341L75.0222 69.1027C73.9379 70.1869 73.9379 71.9524 75.0222 73.0367L80.819 78.8335C81.9033 79.9178 83.6687 79.9178 84.753 78.8335L86.9216 76.6649C88.0059 75.5806 88.0059 73.8152 86.9216 72.7309L81.1248 66.9341C80.0266 65.8498 78.2751 65.8498 77.1908 66.9341Z" fill="white" stroke="#54BBAB" stroke-width="3" stroke-miterlimit="10"/>
<path d="M83.4359 60.6929L81.2673 62.8614C80.183 63.9457 80.183 65.7112 81.2673 66.7955L89.1493 74.6774C90.2336 75.7617 91.999 75.7617 93.0833 74.6774L95.2519 72.5089C96.3362 71.4246 96.3362 69.6591 95.2519 68.5748L87.3699 60.6929C86.2856 59.6086 84.5202 59.6086 83.4359 60.6929Z" fill="white" stroke="#54BBAB" stroke-width="3" stroke-miterlimit="10"/>
<path d="M89.6752 54.4511L87.5066 56.6197C86.4223 57.704 86.4223 59.4694 87.5066 60.5537L93.9984 67.0456C95.0827 68.1298 96.8482 68.1298 97.9325 67.0456L100.101 64.877C101.185 63.7927 101.185 62.0272 100.101 60.9429L93.6092 54.4511C92.5249 53.3529 90.7595 53.3529 89.6752 54.4511Z" fill="white" stroke="#54BBAB" stroke-width="3" stroke-miterlimit="10"/>
<defs>
<filter id="filter0_d" x="29" y="13" width="133.79" height="170.571" filterUnits="userSpaceOnUse" color-interpolation-filters="sRGB">
<feFlood flood-opacity="0" result="BackgroundImageFix"/>
<feColorMatrix in="SourceAlpha" type="matrix" values="0 0 0 0 0 0 0 0 0 0 0 0 0 0 0 0 0 0 127 0"/>
<feOffset dy="4"/>
<feColorMatrix type="matrix" values="0 0 0 0 0 0 0 0 0 0 0 0 0 0 0 0 0 0 0.15 0"/>
<feBlend mode="normal" in2="BackgroundImageFix" result="effect1_dropShadow"/>
<feBlend mode="normal" in="SourceGraphic" in2="effect1_dropShadow" result="shape"/>
</filter>
<filter id="filter1_d" x="29" y="13" width="133.79" height="170.571" filterUnits="userSpaceOnUse" color-interpolation-filters="sRGB">
<feFlood flood-opacity="0" result="BackgroundImageFix"/>
<feColorMatrix in="SourceAlpha" type="matrix" values="0 0 0 0 0 0 0 0 0 0 0 0 0 0 0 0 0 0 127 0"/>
<feOffset dy="4"/>
<feColorMatrix type="matrix" values="0 0 0 0 0 0 0 0 0 0 0 0 0 0 0 0 0 0 0.15 0"/>
<feBlend mode="normal" in2="BackgroundImageFix" result="effect1_dropShadow"/>
<feBlend mode="normal" in="SourceGraphic" in2="effect1_dropShadow" result="shape"/>
</filter>
</defs>
</svg>
